icons/svg/appearance_16.svg

<svg width="16" height="16" xmlns="http://www.w3.org/2000/svg" xmlns:xlink="http://www.w3.org/1999/xlink"><defs><path d="M13 12H3V9c0-.551.449-1 1-1h1.806c.484 0 .94-.234 1.221-.627.284-.396.356-.887.199-1.348C6.783 4.726 6.5 3.069 6.5 2.5 6.5 1.673 7.173 1 8 1s1.5.673 1.5 1.5c0 .569-.283 2.226-.726 3.525-.157.461-.085.952.199 1.348.281.393.737.627 1.221.627H12c.551 0 1 .449 1 1v3zm0 2c0 .551-.449 1-1 1h-.5v-2H13v1zm-4.5 1h2v-2h-2v2zm-3 0h2v-2h-2v2zm-1 0H4c-.551 0-1-.449-1-1v-1h1.5v2zM12 7h-1.806a.496.496 0 01-.474-.652c.46-1.347.78-3.109.78-3.848C10.5 1.122 9.378 0 8 0a2.503 2.503 0 00-2.5 2.5c0 .739.32 2.501.78 3.848A.496.496 0 015.806 7H4c-1.103 0-2 .897-2 2v5c0 1.103.897 2 2 2h8c1.103 0 2-.897 2-2V9c0-1.103-.897-2-2-2zM8 2a.5.5 0 100 1 .5.5 0 000-1z" id="a"/></defs><use fill="#171B1F" xlink:href="#a" fill-rule="evenodd"/></svg>

<?xml version="1.0" encoding="UTF-8"?>
<svg width="16px" height="16px" viewBox="0 0 16 16" version="1.1" xmlns="http://www.w3.org/2000/svg" xmlns:xlink="http://www.w3.org/1999/xlink">
    <!-- Generator: Sketch 59.1 (86144) - https://sketch.com -->
    <title>appearance_16</title>
    <desc>Created with Sketch.</desc>
    <defs>
        <path d="M13,12 L11.5,12 L10.5,12 L8.5,12 L7.5,12 L5.5,12 L4.5,12 L3,12 L3,9 C3,8.449 3.449,8 4,8 L5.806,8 C6.29,8 6.746,7.766 7.027,7.373 C7.311,6.977 7.383,6.486 7.226,6.025 C6.783,4.726 6.5,3.069 6.5,2.5 C6.5,1.673 7.173,1 8,1 C8.827,1 9.5,1.673 9.5,2.5 C9.5,3.069 9.217,4.726 8.774,6.025 C8.617,6.486 8.689,6.977 8.973,7.373 C9.254,7.766 9.71,8 10.194,8 L12,8 C12.551,8 13,8.449 13,9 L13,12 Z M13,14 C13,14.551 12.551,15 12,15 L11.5,15 L11.5,13 L13,13 L13,14 Z M8.5,15 L10.5,15 L10.5,13 L8.5,13 L8.5,15 Z M5.5,15 L7.5,15 L7.5,13 L5.5,13 L5.5,15 Z M4.5,15 L4,15 C3.449,15 3,14.551 3,14 L3,13 L4.5,13 L4.5,15 Z M12,7 L10.194,7 C10.03,7 9.881,6.924 9.786,6.791 C9.693,6.661 9.669,6.499 9.72,6.348 C10.18,5.001 10.5,3.239 10.5,2.5 C10.5,1.122 9.378,0 8,0 C6.622,0 5.5,1.122 5.5,2.5 C5.5,3.239 5.82,5.001 6.28,6.348 C6.331,6.499 6.307,6.661 6.214,6.791 C6.119,6.924 5.97,7 5.806,7 L4,7 C2.897,7 2,7.897 2,9 L2,12 L2,13 L2,14 C2,15.103 2.897,16 4,16 L4.5,16 L5.5,16 L7.5,16 L8.5,16 L10.5,16 L11.5,16 L12,16 C13.103,16 14,15.103 14,14 L14,13 L14,12 L14,9 C14,7.897 13.103,7 12,7 Z M8,2 C7.724,2 7.5,2.224 7.5,2.5 C7.5,2.776 7.724,3 8,3 C8.276,3 8.5,2.776 8.5,2.5 C8.5,2.224 8.276,2 8,2 L8,2 Z" id="path-1"></path>
    </defs>
    <g id="Symbols" stroke="none" stroke-width="1" fill="none" fill-rule="evenodd">
        <g id="settings/appearance_16">
            <mask id="mask-2" fill="white">
                <use xlink:href="#path-1"></use>
            </mask>
            <use id="fill" fill="#171B1F" xlink:href="#path-1"></use>
        </g>
    </g>
</svg>
